X:1
T:Title
%%score { 1 | ( 2 3 ) } 4
L:1/8
Q:1/4=75
M:2/4
K:G
V:1 treble nm="Grand Piano, Soprano"
V:2 treble 
V:3 treble 
V:4 bass nm="Choir Pad, Ring the Bells"
V:1
 B>B BB | BB dG | G>G GG | cc B2 | B>B BF | GA GB | e>e ee | d^c d2 | d>d de | d/c/[GB]/c/ dB | %10
w: By~John~Harrison~Tenney * * *||||||||||
 c>c cd | c/B/[FA]/B/ c2 | B>B [Bd]/c/[GB]/c/ | de dB | e>e dB | Ad G2 | dd d2- | d4 | z d3- | %19
w: |||||||||
 d2 d>A | B^c d2- | d2 A>A | AB cd | cA B>B | Bc de | dB d>B | cd e2- | e2 d>c | BA G2- | G4 |] %30
w: |||||||||||
V:2
 G>G GG | GG .G2 | E>E EE | EE D2 | ^D>D DD | EF EE | G>G GG | FE F2 | [GB]>[GB] [GB][Gc] | %9
 z/ .AA/ [GB][DG] | [DA]>[DA] [DA][DB] | A/.GG/ [DA]2 | G>G z/ .AA/ | [GB][Gc] [GB]G | %14
 [Gc]>[Gc] [GB][DG] | [DF][CF] B,2 | z2 GF | F G2 d | dG FF | G2 F>F | GE F2- | F2 F>F | FG AB | %23
 AF G>G | GG GG | GG G>G | GG G2- | G2 F>A | GF z2 | z4 |] %30
V:3
 x4 | x4 | x4 | x4 | x4 | x4 | x4 | x4 | x4 | [GB]D z2 | x4 | DD z2 | z2 GD | x4 | x4 | x4 | x4 | %17
 x4 | x4 | x4 | x4 | x4 | x4 | x4 | x4 | x4 | x4 | x4 | x4 | x4 |] %30
V:4
 [G,D]>[G,D] [G,D][G,D] | [G,D][G,D] [G,B,][G,B,] | [C,C]>[C,C] [C,G,][C,G,] | %3
 [C,G,][C,G,] [G,,G,]2 | [B,,F,]>[B,,F,] [B,,F,][B,,B,] | [B,,B,][B,,B,] [E,B,][E,G,] | %6
 [E,B,]>[E,B,] [E,B,][G,B,] | A,[A,,A,] [D,A,]2 | z4 | z4 | z4 | z4 | z4 | z4 | z4 | z4 | %16
 z [G,B,] z [D,A,] | [D,A,] .[G,B,]3 | .[G,B,]2 [D,A,][D,A,] | [G,B,]2 A,>A, | A,A, [D,A,]2- | %21
 [D,A,]2 [D,D]>[D,D] | [D,D][D,D] [D,D][D,D] | [D,D][D,D] [G,D]>[G,D] | [G,D][G,A,] [G,B,][G,C] | %25
 [G,B,][G,D] [G,B,]>[=F,D] | [E,C][D,B,] [C,C]2- | [C,C]2 [D,A,]>[D,D] | [D,D][D,C] [G,B,]2- | %29
 [G,B,]4 |] %30

